X:8890
T:La Courante
R:Danse
A:Normandie
O:France
M:6/8
L:1/8
Q:1/4=140
K:G
G G2 B|/ M:9/8/  d3-d z d c2 c| B3-B ","z G G2 B| d3-d z d c2 c| B3-B ",
"z B B2 B|!
M:6/8 B2 B B2 d| dcB  A2 B| G6| D2 ", "  D G2 A|B2 B B2 d| dcB A2 B|G2 G
 G2  B|!


